svg/business/refund_dollar_fill.svg

<?xml version="1.0" encoding="UTF-8"?>
<svg width="24px" height="24px" viewBox="0 0 24 24" version="1.1" xmlns="http://www.w3.org/2000/svg" xmlns:xlink="http://www.w3.org/1999/xlink">
    <title>refund_dollar_fill</title>
    <g id="Icon" stroke="none" stroke-width="1" fill="none" fill-rule="evenodd">
        <g id="Business" transform="translate(-576.000000, -528.000000)" fill-rule="nonzero">
            <g id="refund_dollar_fill" transform="translate(576.000000, 528.000000)">
                <path d="M24,0 L24,24 L0,24 L0,0 L24,0 Z M12.5935,23.2578 L12.5819,23.2595 L12.5109,23.295 L12.4919,23.2987 L12.4767,23.295 L12.4057,23.2595 C12.3958,23.2564 12.387,23.259 12.3821,23.2649 L12.378,23.2758 L12.3609,23.7031 L12.3659,23.7235 L12.3769,23.7357 L12.4805,23.8097 L12.4953,23.8136 L12.5071,23.8097 L12.6107,23.7357 L12.6233,23.7197 L12.6267,23.7031 L12.6096,23.2758 C12.6076,23.2657 12.601,23.2593 12.5935,23.2578 Z M12.8584,23.1453 L12.8445,23.1473 L12.6598,23.2397 L12.6499,23.2499 L12.6472,23.2611 L12.6651,23.6906 L12.6699,23.7034 L12.6784,23.7105 L12.8793,23.8032 C12.8914,23.8069 12.9022,23.803 12.9078,23.7952 L12.9118,23.7812 L12.8777,23.1665 C12.8753,23.1546 12.8674,23.147 12.8584,23.1453 Z M12.143,23.1473 C12.1332,23.1424 12.1222,23.1453 12.1156,23.1526 L12.1099,23.1665 L12.0758,23.7812 C12.0751,23.7927 12.0828,23.8019 12.0926,23.8046 L12.1083,23.8032 L12.3092,23.7105 L12.3186,23.7024 L12.3225,23.6906 L12.3404,23.2611 L12.3372,23.2485 L12.3278,23.2397 L12.143,23.1473 Z" id="MingCute"></path>
                <path d="M22.142,9.2822 C23.6429,14.8836 20.3188,20.6411 14.7174,22.142 C9.88881,23.4358 4.94769,21.1448 2.71247,16.9025 C2.3263,16.1696 2.60739,15.2624 3.3403,14.8762 C4.07322,14.4901 4.98042,14.7712 5.36659,15.5041 C6.96299,18.5339 10.4951,20.1676 13.9409,19.2442 C17.9419,18.1722 20.3163,14.0597 19.2442,10.0587 C18.1722,6.05766 14.0597,3.68329 10.0587,4.75535 C7.9261,5.32677 6.25405,6.76258 5.32101,8.58678 L5.4209,8.56448 C7.14661,8.17932 8.1298,10.465 6.66348,11.453 L3.98994,13.2544 C2.94699,13.9571 1.48823,13.2318 1.49775579,11.9178 C1.5012,11.4602 1.53464,11.0065 1.59671,10.5594 C2.15918,6.50821 5.0775,2.98422 9.2822,1.85758 C14.8836,0.356688 20.6411,3.6808 22.142,9.2822 Z M12,5.99998 C12.5523,5.99998 13,6.4477 13,6.99998 L13,7.99998 L15,7.99998 C15.5523,7.99998 16,8.4477 16,8.99998 C16,9.55227 15.5523,9.99998 15,9.99998 L10,9.99998 C9.72386,9.99998 9.5,10.2238 9.5,10.5 C9.5,10.7761 9.72386,11 10,11 L14,11 C15.3807,11 16.5,12.1193 16.5,13.5 C16.5,14.8807 15.3807,16 14,16 L13,16 L13,17 C13,17.5523 12.5523,18 12,18 C11.4477,18 11,17.5523 11,17 L11,16 L9,16 C8.44772,16 8,15.5523 8,15 C8,14.4477 8.44772,14 9,14 L14,14 C14.2761,14 14.5,13.7761 14.5,13.5 C14.5,13.2238 14.2761,13 14,13 L10,13 C8.61929,13 7.5,11.8807 7.5,10.5 C7.5,9.11927 8.61929,7.99998 10,7.99998 L11,7.99998 L11,6.99998 C11,6.4477 11.4477,5.99998 12,5.99998 Z" id="形状" fill="#09244B"></path>
            </g>
        </g>
    </g>
</svg>

<svg xmlns="http://www.w3.org/2000/svg" width="24" height="24"><g fill="none" fill-rule="nonzero"><path d="M24 0v24H0V0zM12.594 23.258l-.012.002-.071.035-.02.004-.014-.004-.071-.036c-.01-.003-.019 0-.024.006l-.004.01-.017.428.005.02.01.013.104.074.015.004.012-.004.104-.074.012-.016.004-.017-.017-.427c-.002-.01-.009-.017-.016-.018m.264-.113-.014.002-.184.093-.01.01-.003.011.018.43.005.012.008.008.201.092c.012.004.023 0 .029-.008l.004-.014-.034-.614c-.003-.012-.01-.02-.02-.022m-.715.002a.023.023 0 0 0-.027.006l-.006.014-.034.614c0 .012.007.02.017.024l.015-.002.201-.093.01-.008.003-.011.018-.43-.003-.012-.01-.01z"/><path fill="#09244B" d="M22.142 9.282c1.5 5.602-1.823 11.36-7.425 12.86-4.828 1.294-9.77-.997-12.005-5.24a1.5 1.5 0 1 1 2.655-1.398 7.5 7.5 0 1 0-.046-6.917l.1-.023c1.726-.385 2.709 1.901 1.242 2.889L3.99 13.254c-1.043.703-2.502-.022-2.492-1.336a10.503 10.503 0 0 1 7.784-10.06c5.602-1.501 11.36 1.823 12.86 7.424M12 6a1 1 0 0 1 1 1v1h2a1 1 0 1 1 0 2h-5a.5.5 0 1 0 0 1h4a2.5 2.5 0 0 1 0 5h-1v1a1 1 0 1 1-2 0v-1H9a1 1 0 1 1 0-2h5a.5.5 0 0 0 0-1h-4a2.5 2.5 0 0 1 0-5h1V7a1 1 0 0 1 1-1"/></g></svg>
